X: 12145
T: Ewe Wi' The Crookit Horn, The
R: strathspey
M: 4/4
K: Gmajor
G|(D<G) G>A F>GAF|(DG) ~GA/B/ (cA) (BG)|c>A d>B {B}A>G {G}F>E|DG ~GA/B/ cd G2|(D<G)G>A “tr”F>GAF|
(DG) ~GA/B/ (cA) (BG)|c>A d>B {B}A>G {G}F>E|(DG) ~GA/B/ cAd z/(B/|c>)(A d>)B {B}A>G {G}F>E|(DG) ~GA/B/ (cd) G||

